icons/line/sort-vertical.svg

<svg width="24" height="24" viewBox="0 0 24 24" fill="none" xmlns="http://www.w3.org/2000/svg">
<path fill-rule="evenodd" clip-rule="evenodd" d="M4.29289 6.29289C3.90237 6.68342 3.90237 7.31658 4.29289 7.70711C4.68342 8.09763 5.31658 8.09763 5.70711 7.70711L7 6.41421L7 14C7 14.5523 7.44772 15 8 15C8.55229 15 9 14.5523 9 14L9 6.41421L10.2929 7.70711C10.6834 8.09763 11.3166 8.09763 11.7071 7.70711C12.0976 7.31658 12.0976 6.68342 11.7071 6.29289L8.70711 3.29289C8.31658 2.90237 7.68342 2.90237 7.29289 3.29289L4.29289 6.29289ZM12.2929 17.7071C11.9024 17.3166 11.9024 16.6834 12.2929 16.2929C12.6834 15.9024 13.3166 15.9024 13.7071 16.2929L15 17.5858V10C15 9.44772 15.4477 9 16 9C16.5523 9 17 9.44772 17 10V17.5858L18.2929 16.2929C18.6834 15.9024 19.3166 15.9024 19.7071 16.2929C20.0976 16.6834 20.0976 17.3166 19.7071 17.7071L16.7071 20.7071C16.3166 21.0976 15.6834 21.0976 15.2929 20.7071L12.2929 17.7071Z" fill="currentColor"/>
</svg>

<svg width="24" height="24" fill="none" xmlns="http://www.w3.org/2000/svg"><path fill-rule="evenodd" clip-rule="evenodd" d="M4.293 6.293a1 1 0 001.414 1.414L7 6.414V14a1 1 0 102 0V6.414l1.293 1.293a1 1 0 101.414-1.414l-3-3a1 1 0 00-1.414 0l-3 3zm8 11.414a1 1 0 011.414-1.414L15 17.586V10a1 1 0 112 0v7.586l1.293-1.293a1 1 0 011.414 1.414l-3 3a1 1 0 01-1.414 0l-3-3z" fill="currentColor"/></svg>
